X: 1
T: SHAVE THE DONKEY
S: RD
O: Bampton
P: A.(A2B6)3.A2
B: Morris Ring
Z: 2005 John Chambers <jc@trillian.mit.edu>
M: 4/4
L: 1/8
K: G
P: A
|: d2B2 dcBA | G2g2 e2g2 | d2B2 dcBA | G2B2 G4 :|
P: B
|: A3c  B2d2 | A3c  B2d2 | A3B  c2e2 | dcBA G4 :|
